X:1
T:Victory in Jesus
T:Victory in Jesus
T:Eliza Edmunds Stites Hewitt
T:Eliza Edmunds Stites Hewitt, circa 1900
T:Public Domain Courtesy of the Cyber Hymnal™
T:Public Domain Courtesy of the Cyber Hymnal™
C:Eliza Edmunds Stites Hewitt
Z:Public Domain
Z:Courtesy of the Cyber Hymnal™
%%score ( 1 2 ) ( 3 4 )
L:1/8
Q:1/4=97
M:4/4
K:G
V:1 treble 
V:2 treble 
V:3 bass 
V:4 bass 
V:1
 [B,D]>[B,D] [B,D]>[B,D] [B,D]>[B,D] [B,G]>[CA] | [DB]2 [Ec]2 [DB]4 | %2
w: 1.~Sol- diers of King Je- sus, raise the|shout a- gain,|
w: 2.~O’er the pow’rs of dark- ness, o’er the|hosts of sin,|
w: 3.~Send the hap- py watch- word all a-|long the line,|
w: 4.~For His church and king- dom, for each|trust- ing soul,|
 [Fd]>[Fd] [Fd]>[Fc] [GB]2 [DG]2 | [FA]3 [Fd] [Fd]4 | %4
w: Vic- to- ry in Je- sus,|vic- to- ry!|
w: Vic- to- ry in Je- sus,|vic- to- ry!|
w: Vic- to- ry in Je- sus,|vic- to- ry!|
w: Vic- to- ry in Je- sus,|vic- to- ry!|
 [B,D]>[B,D] [B,D]>[B,D] [B,D]>[B,D] [B,G]>[CA] | [DB]2 [Ec]2 [DB]4 | %6
w: March- ing to the mu- sic of the|glad re- frain,|
w: Trust- ing, watch- ing, pray- ing, we shall|sure- ly win,|
w: Let all er- ror per- ish, lives the|truth di- vine,|
w: From the courts of heav- en joy- ful|pae- ans roll,|
 [Fd]>[Fd] [Fd]>[Fd] [Fd]>[Ac] [GB]>[FA] | G6 z2 ||"^Refrain" [FA]>[Fd] [Fd]2 [GB]>[Gd] [Gd]2 | %9
w: Vic- to- ry in Je- sus ev- er-|more.||
w: Vic- to- ry in Je- sus ev- er-|more.|Vic- to- ry, vic- to- ry,|
w: Vic- to- ry in Je- sus ev- er-|more.||
w: Vic- to- ry in Je- sus ev- er-|more.||
 [FA]>[Fd] [Fd]>[Fc] [GB]2 [DG]2 | [^DB]>[DB] [DB]>[DB] [DB]>[FA] [EG]2 | %11
w: ||
w: vic- to- ry in Je- sus!|Sing His o- ver- com- ing blood,|
w: ||
w: ||
 [FA]>[FA] [GB]>[G^c] [Fd]2 !fermata!D2 | [Bd]>[Ac] [GB]>[Ac] [Bd]2 [Gd]2 | %13
w: ||
w: sing the grace that frees us;|Ring it out more bold- ly,|
w: ||
w: ||
 [Ac]>[GB] [FA]>[GB] !fermata![Ac]2 !fermata![Gd]>[Gc] | [GB]2 [EA]2 [DG]2 [DF]2 | [DG]8 |] %16
w: |||
w: song of faith and cheer, Till the|whole wide world shall|hear.|
w: |||
w: |||
V:2
 x8 | x8 | x8 | x8 | x8 | x8 | x8 | G6 x2 || x8 | x8 | x8 | x6 D2 | x8 | x8 | x8 | x8 |] %16
V:3
 G,>G, G,>G, G,>G, G,>G, | G,2 G,2 G,4 | [D,A,]>[D,A,] [D,A,]>[D,D] [G,D]2 [G,B,]2 | %3
 [D,D]3 [D,A,] [D,A,]4 | G,>G, G,>G, G,>G, G,>G, | G,2 G,2 G,4 | %6
 [D,A,]>[D,A,] [D,A,]>[D,A,] [D,A,]>[D,D] [D,D]>[D,C] | [G,B,]6 z2 || %8
 [D,D]>[D,A,] (A,D) [G,D]>[G,B,] [G,B,]2 | [D,D]>[D,A,] [D,A,]>[D,D] [G,D]2 [G,B,]2 | %10
 [B,,F,]>[B,,F,] [B,,F,]>[B,,F,] [B,,F,]>[B,,B,] [E,B,]2 | %11
 [A,D]>[A,D] [A,^C]>A, [D,A,]2 !fermata!D,2 | [G,D]>[G,D] [G,D]>[G,D] [G,D]2 [G,B,]2 | %13
 [D,D]>[D,D] [D,D]>[D,D] !fermata![D,D]2 !fermata![G,B,]>[G,E] | [G,D]2 [C,C]2 [D,B,]2 [D,A,]2 | %15
 [G,,B,]8 |] %16
V:4
 G,>G, G,>G, G,>G, G,>G, | G,2 G,2 G,4 | x8 | x8 | G,>G, G,>G, G,>G, G,>G, | G,2 G,2 G,4 | x8 | %7
 x8 || x2 D,2 x4 | x8 | x8 | x7/2 A,/ x3/2 D,2 x/ | x8 | x8 | x8 | x8 |] %16

